Sweet-Rainbow/icons/exaile.svg

<?xml version="1.0" encoding="UTF-8" standalone="no"?>
<!-- Generator: Gravit.io -->

<svg
   xmlns:dc="http://purl.org/dc/elements/1.1/"
   xmlns:cc="http://creativecommons.org/ns#"
   xmlns:rdf="http://www.w3.org/1999/02/22-rdf-syntax-ns#"
   xmlns:svg="http://www.w3.org/2000/svg"
   xmlns="http://www.w3.org/2000/svg"
   xmlns:sodipodi="http://sodipodi.sourceforge.net/DTD/sodipodi-0.dtd"
   xmlns:inkscape="http://www.inkscape.org/namespaces/inkscape"
   style="isolation:isolate"
   viewBox="0 0 36 36"
   width="48"
   height="48"
   version="1.1"
   id="svg9"
   sodipodi:docname="exaile.svg"
   inkscape:version="0.92.4 (5da689c313, 2019-01-14)">
  <metadata
     id="metadata15">
    <rdf:RDF>
      <cc:Work
         rdf:about="">
        <dc:format>image/svg+xml</dc:format>
        <dc:type
           rdf:resource="http://purl.org/dc/dcmitype/StillImage" />
        <dc:title></dc:title>
      </cc:Work>
    </rdf:RDF>
  </metadata>
  <defs
     id="defs13" />
  <sodipodi:namedview
     pagecolor="#ffffff"
     bordercolor="#666666"
     borderopacity="1"
     objecttolerance="10"
     gridtolerance="10"
     guidetolerance="10"
     inkscape:pageopacity="0"
     inkscape:pageshadow="2"
     inkscape:window-width="640"
     inkscape:window-height="480"
     id="namedview11"
     showgrid="false"
     inkscape:zoom="29.365243"
     inkscape:cx="25.325443"
     inkscape:cy="32"
     inkscape:current-layer="svg9"
     units="px" />
  <linearGradient
     id="_lgradient_5"
     x1="0.18118802"
     y1="0.45045593"
     x2="0.98387408"
     y2="0.51680315"
     gradientTransform="matrix(47,0,0,47.058,0.5,0.471)"
     gradientUnits="userSpaceOnUse">
    <stop
       offset="2.608695652173913%"
       stop-opacity="1"
       style="stop-color:rgb(179,255,171)"
       id="stop2" />
    <stop
       offset="98.69565217391305%"
       stop-opacity="1"
       style="stop-color:rgb(18,255,247)"
       id="stop4" />
  </linearGradient>
  <g
     id="g826"
     transform="matrix(0.76501339,0,0,0.76501339,-0.36030612,-0.36032136)">
    <path
       id="path7"
       d="m 4.773,22.567 v 0 C 4.685,23.742 3.657,24.626 2.479,24.54 v 0 C 1.302,24.455 0.418,23.427 0.506,22.246 v 0 C 0.945,16.332 3.608,10.792 7.961,6.749 12.313,2.717 18.035,0.471 23.971,0.471 c 6.235,0 12.224,2.481 16.641,6.888 4.407,4.417 6.888,10.406 6.888,16.641 0,6.235 -2.481,12.224 -6.888,16.641 -4.417,4.407 -10.406,6.888 -16.641,6.888 v 0 c -1.181,0 -2.139,-0.958 -2.139,-2.139 v 0 c 0,-1.181 0.958,-2.139 2.139,-2.139 v 0 c 5.101,0 10,-2.032 13.615,-5.636 C 41.19,34 43.222,29.102 43.222,24 43.222,18.898 41.19,14 37.586,10.385 33.971,6.781 29.072,4.749 23.971,4.749 c -4.856,0 -9.54,1.829 -13.101,5.134 -3.562,3.304 -5.733,7.839 -6.097,12.684 z m 10.246,18.481 v 0 c 1.045,0.549 1.448,1.843 0.899,2.888 v 0 c -0.549,1.044 -1.843,1.447 -2.888,0.898 v 0 C 8.581,42.492 4.987,38.781 2.795,34.257 v 0 C 2.275,33.194 2.716,31.912 3.779,31.396 v 0 c 1.062,-0.517 2.347,-0.074 2.866,0.989 v 0 c 1.797,3.711 4.727,6.738 8.374,8.663 z M 27.02,24 19.5,29.39 V 18.61 Z M 32.98,24 16.5,34.61 V 13.39 Z"
       style="fill:url(#_lgradient_5);fill-rule:evenodd"
       inkscape:connector-curvature="0" />
  </g>
</svg>

<?xml version="1.0" encoding="UTF-8" standalone="no"?><!-- Generator: Gravit.io --><svg xmlns="http://www.w3.org/2000/svg" xmlns:xlink="http://www.w3.org/1999/xlink" style="isolation:isolate" viewBox="0 0 48 48" width="48pt" height="48pt"><linearGradient id="_lgradient_5" x1="0.18118802349087196" y1="0.4504559267518984" x2="0.9838740733609314" y2="0.5168031573024857" gradientTransform="matrix(47,0,0,47.058,0.5,0.471)" gradientUnits="userSpaceOnUse"><stop offset="2.608695652173913%" stop-opacity="1" style="stop-color:rgb(179,255,171)"/><stop offset="98.69565217391305%" stop-opacity="1" style="stop-color:rgb(18,255,247)"/></linearGradient><path d=" M 4.773 22.567 L 4.773 22.567 C 4.685 23.742 3.657 24.626 2.479 24.54 L 2.479 24.54 C 1.302 24.455 0.418 23.427 0.506 22.246 L 0.506 22.246 C 0.945 16.332 3.608 10.792 7.961 6.749 C 12.313 2.717 18.035 0.471 23.971 0.471 C 30.206 0.471 36.195 2.952 40.612 7.359 C 45.019 11.776 47.5 17.765 47.5 24 C 47.5 30.235 45.019 36.224 40.612 40.641 C 36.195 45.048 30.206 47.529 23.971 47.529 L 23.971 47.529 C 22.79 47.529 21.832 46.571 21.832 45.39 L 21.832 45.39 C 21.832 44.209 22.79 43.251 23.971 43.251 L 23.971 43.251 C 29.072 43.251 33.971 41.219 37.586 37.615 C 41.19 34 43.222 29.102 43.222 24 C 43.222 18.898 41.19 14 37.586 10.385 C 33.971 6.781 29.072 4.749 23.971 4.749 C 19.115 4.749 14.431 6.578 10.87 9.883 C 7.308 13.187 5.137 17.722 4.773 22.567 L 4.773 22.567 Z  M 15.019 41.048 L 15.019 41.048 C 16.064 41.597 16.467 42.891 15.918 43.936 L 15.918 43.936 C 15.369 44.98 14.075 45.383 13.03 44.834 L 13.03 44.834 C 8.581 42.492 4.987 38.781 2.795 34.257 L 2.795 34.257 C 2.275 33.194 2.716 31.912 3.779 31.396 L 3.779 31.396 C 4.841 30.879 6.126 31.322 6.645 32.385 L 6.645 32.385 C 8.442 36.096 11.372 39.123 15.019 41.048 L 15.019 41.048 Z  M 27.02 24 L 19.5 29.39 L 19.5 18.61 L 27.02 24 L 27.02 24 Z  M 32.98 24 L 16.5 34.61 L 16.5 13.39 L 32.98 24 L 32.98 24 Z " fill-rule="evenodd" fill="url(#_lgradient_5)"/></svg>
